X:1
T:Ballade No. 1 in G Minor (Excerpts)
T:Op. 23
T:Frédérick Chopin
%%score { ( 1 4 5 6 ) | ( 2 3 ) }
L:1/8
Q:1/4=48
M:4/4
K:Bb
V:1 treble nm="Piano"
V:4 treble 
V:5 treble 
V:6 treble 
V:2 bass 
V:3 bass 
V:1
"^Largo"!f! x8 | C_A,EB c_A[Q:1/4=44]!>(!eb | c'gb_a g2!>)!!p![Q:1/4=20]"^ten." ^f[Q:1/4=20] z | %3
 z!p![Q:1/4=48] ^fgf ^ef(3=ag_e | e>d(3=fed d2 z2 | z4 c3!mp! G | %6
!mf![Q:1/4=240] z2 B6-[Q:1/4=48] ||[M:6/4][Q:1/4=130]"^Moderato" B6 z x x!mf! ^F2 x | %8
!mf! B6!mf![Q:1/4=120] d6 |!mp![Q:1/4=110] c6 z[Q:1/4=130] x x!mf! ^F2 x | %10
!mf! G6!mf![Q:1/4=120] =E6 |!mp![Q:1/4=110] ^F6 z!mp![Q:1/4=130] x x!mf! F2 x | %12
!mf! G6!mf![Q:1/4=120] g6 |!mp![Q:1/4=110] =f6!mp![Q:1/4=130] E6 |!mf! ^c6!mf![Q:1/4=120] d6 | %15
!mp![Q:1/4=110] =c6 z!mp![Q:1/4=130] x x!mf! ^F2 x |!mf! G6!mf![Q:1/4=120] d6 | %17
!mp![Q:1/4=110] c6 z!mp![Q:1/4=130] x x!mf! ^F2 x |!mf! G6!mf![Q:1/4=120] =E6 | %19
[Q:1/4=110] ^F6 z!mp![Q:1/4=130] x x!mf! F2 x |!mf! G6!mf! g6 |!mf! g6!mf! d6 | %22
!mf![Q:1/4=120] c6!mp![Q:1/4=110] G6 |!mf![Q:1/4=130] g6!mf! d6 |!mf! c6!mf! G6 |!mf! F6!mf! d6- | %26
 d2{/d} c2!<(! [A=B]2 c2!mf! d2 e2!<)! |!f! e6!mp! d6 |!mp! z2 A2!<(! [^F^G]2 A2!mf! B2!<)! c2 | %29
!f! c6!mp! B6 | A6[Q:1/4=120] A4- A!mf!A |[Q:1/4=130] A6- A4!mf! A2- | %32
 A/B/A/^G/ A/g/=e/f/ f/!ff!g'/f'/=e'/ (6:4:6_e'/c'/a/b/d'/c'/(6:4:6b/g/f/d/_e/=e/(6:4:6f/^f/a/g/=f/_e/ | %33
!mf! ^c z d4 d2 =c2 G2 |[Q:1/4=120] B6!mf![Q:1/4=110] ^F6 | %35
[Q:1/4=130] G2!p! [Bb]d=fe- e2 [Aa]^ced- |[Q:1/4=140]"^accel." d2 [Bb]dfe- e2 [_A_a]^ced- | %37
[Q:1/4=150] d2 [Gg]=Bd=c- c2 [Cc]^G_BA- |[Q:1/4=160] A2 [Ee]=Bdc- c2 =G2 [^FA]2 | %39
 [B,G]2[Q:1/4=240]"^agitato" [G,=C]B,A,G, [B,G]2 [G,C]B,A,G, | =FCE^F,CE ^F!mf!c=fedc | %41
 [Bg]2 [Gc]BAG [Bg]2 [Gc]BAG | =f!f!ce^Fce ^fc'=f'e'd'c' || %43
[M:4/4][Q:1/4=280]"^Presto con fuoco" !>![bg']2!8va(! [d'g'b']a z [bd'g'][bd'g']^f!8va)! | %44
 z [gbd'][gbd']^c z [dgb][dgb]B | z [eg=c'][egc']d ^c=c[egc']d | ^c=c[e^fc']d ^c=c[dfa]c | %47
 !>![Bdgb]2!8va(! [d'g'b']a z [bd'g'][bd'g']^f!8va)! | z [gbd'][gbd']^c z [dgb][dgb]B | %49
 z [eg=c'][egc']d ^c=c[egc']d | ^c=c[e^fc']d ^c=c[dfa]c | !>![Bdgb]2 _a[e'_a'] a[ea]G[eg] | %52
 ^F[=A^f]f[=a^f'] g[bg']g[Bg] | _A[e_a]a[e'_a'] a[ea]G[eg] | ^F[=A^f]f[=a^f'] g[bg']g[Bg] | %55
 =F[_A=f]f[_a=f'] f[Ae]E[Ae] | D[_Ad]d[_ad'] d[Ac]C[Ac] | C[Ec]c[ec'] c[ec'] B[db] | %58
 B2 =A2 G2 ^F2 | x2 _a2 x2 G2 | ^F2 x2 g2 x2 | _A2 _a2 x2 G2 | ^F2 x2 g2 x2 | %63
 =F[_Af]f[_a=f'] f[Ge]E[Ge] | D[^Fd]d[^fd'] d[=E^c]^C[Ec] | x2 c2!ff! =B2 c2 | c2 e2 d2 e2 | %67
 e2 _g2 f2 g2 |!8va(! ^f2 a2 _b2 c'2 | c'2 b2 b2 a2 | a2 g2 g2 d2 | z b[d'b']b [_d'b']b[c'a']a | %72
 [c'a']a[bg']g [bg']g[^f=d']d | z d'[g'b'd'']d'!8va)! z2 [gbd']d | z2 [GBd]D z2 z2 | %75
 z2 =E x z2 E x | z2 =E x z2 E x | z4 x4 | (6:4:6^CDE=EF^F (6:4:6G^GAB=B=c | %79
 (6:4:6^cd_e=e=f^f (6:4:6g^gab=b=c' |!8va(! (6:4:6^c'd'_e'=e'=f'^f' (6:4:6g'^g'a'b'=b'^c'' | %81
 (6:4:6_e''d''f''e''d''=c''(6:4:6=b'd''c''_b'a'g' | %82
(6:4:6^f'a'g'f'e'd'(6:4:6e'd'=f'e'd'c'!8va)!(5:4:5=bd'c'_ba | %83
[Q:1/4=180] g/^f/a/g/f/e/d/e/d/=f/e/d/c/=B/d/c/_B/A/G/^F/ | %84
E/D/[K:bass][I:staff +1]C/B,/A,/G,/^F,/E,/D,/C,/B,,/A,,/G,,/^F,,/E,,/D,,/C,,/B,,,/A,,,/G,,,/ | %85
[I:staff -1][K:treble] z8 | %86
 z/[I:staff +1] A,,/B,,/C,/D,/=E,/^F,/G,/A,/B,/C/[I:staff -1]D/=E/^F/G/A/(5:4:5B/c/d/e/^f/ | %87
!fff![Q:1/4=60]"^ten." g[Q:1/4=48]"_ritenuto" z z2 z4 | x8[Q:1/4=132]"_accelerando" | %89
[Q:1/4=60]"_ten." x4[Q:1/4=120][I:staff +1] B,,4- | %90
[Q:1/4=180] B,,/C,/D,/=E,/^F,/G,/A,/B,/[I:staff -1]C/D/=E/^F/G/A/B/c/d/=e/^f/g/!8va(!a/b/c'/d'/=e'/^f'/g'/a'/ | %91
[Q:1/4=60]"_ten." x!8va)! z z2[Q:1/4=48]"_ritenuto" x4 | %92
 x4 (6:4:6z[Q:1/4=132]"^accelerado" DGB_ed | %93
[Q:1/4=60]"^ten." d z z2!8va(! (3[=e'=e'']2 [_e'_e'']2 [d'd'']2 | %94
[Q:1/4=144] (6:4:6[^c'^c'']2 [=c'=c'']2 [=b=b']2[Q:1/4=184] [_b_b']2 [aa']2 [_a_a']2!8va)! | %95
[Q:1/4=200] (6:4:6[gg']2 [^f^f']2 [=f=f']2[Q:1/4=240] [=e=e']2 [_e_e']2 [dd']2 | %96
[Q:1/4=300] (6:4:6[^c^c']2 [=c=c']2 [=B=b]2 [_B_b]2 [Aa]2 [_A_a]2 |[Q:1/4=150] .[Gg]4 z4 | %98
!8va(! [bd'g'b']8!8va)! |[Q:1/4=48] z8 |] %100
V:2
 C,4- C,E,_A,B, | C,_A,,E,B, C"^dim."_A,[I:staff -1]EB |[I:staff +1] z8 | z8 | z8 | %5
 z4!p!!<(! [E,G,C]4!<)! |!ped! D,-[D,G,]-[D,G,E]- [D,G,E]3- [D,G,E]2!ped-up! || %7
[M:6/4] z6!mp!!ped! D,,2 z2 z2!ped-up! | z2!mp! G,,2!p! G,,2 z2!mp! B,2 B,2 | %9
 z2 A,2 A,2!ped! z2!mp! D,,2 D,,2!ped-up! | z2!mp! G,,2!p! G,,2 z2 A,,2!p! A,,2 | %11
 z2 D,,2 D,,2!ped! z2 D,2 D,2!ped-up! | z2!mp! G,,2!p! G,,2 z2 =E2 E2 | %13
 z2 =F2 F2!ped! z2 F,,2 F,,2!ped-up! | z2 B,,2 B,,2 z2 B,2 B,2 | %15
 z2 A,2 A,2!ped! z2 D,,2 D,,2!ped-up! | z2!mp! G,,2!p! G,,2 z2!mp! B,2 B,2 | %17
 z2 A,2 A,2!ped! z2 D,,2 D,,2!ped-up! | z2!mp! G,,2!p! G,,2 z2!mp! A,,2!p! A,,2 | %19
!mp! z2!p! D,,2!pp! D,,2!ped! z2 D,2 D,2!ped-up! | z2!mp! G,2!p! G,2 z2!mp! G,,2 G,,2 | %21
 z2 C,4 z2!mp! D,4 | z2 E,4 z2 D,4 |!mp! =B,,C,D,C, G,2 ^C,D,E,D, G,2 | %24
 D,E,F,E, G,2!p!!ped!{/^D,=E,} TE,/F,/E,/F,/ E,/4F,/4E,/4F,/4E,/4F,/4E,/4F,/4 E,/4F,/4E,/4F,/4D,/E,/!ped-up! | %25
 F,6- F,2!mf! [=E,,=E,]2!f! [F,,F,]2 | [^F,,^F,]6-!mp! [F,,F,]2 [^E,,^E,]2 [F,,F,]2 | [G,,G,]12 | %28
 [D,,D,]12 | [E,,E,]12 |!mf! [C,,C,]6!mp! [D,,D,]6 | %31
!mf!!ped! [^C,,^C,]2!mp! [=E,A,=E]2 [E,A,E]2!p! [E,A,E]2 [E,A,E]2 [E,A,E]2!ped-up! | %32
!mp!!ped! [=C,,=C,]2 [F,A,_EF]2 [F,A,_EF]2 [F,A,_EF]2 [F,A,_EF]2 [F,A,_EF]2!ped-up! | %33
!ped! [B,,,B,,]2 [D,F,B,]2 [F,B,D]2!ped-up!!ped! E,,2 [E,G,C]2 [G,CE]2!ped-up! | %34
!mf!!ped! D,,2!mp! [G,B,E]2!ped-up!!p! [B,D]4!mp! [B,^C]2!p! [A,=C]2 | %35
!mp!!ped! G,,2!p! =F2 E2!ped-up!!mp!!ped! ^F,,2!p! E2 D2!ped-up! | %36
!mp!!ped! G,,2!p! =F2 E2!ped-up!!mp!!ped! =F,,2!p! E2 D2!ped-up! | %37
!mp!!ped! E,,2!p! D2 C2!ped-up!!mp!!ped! C,,2!p! B,2 A,2!ped-up! | %38
!mp!!ped! D,,2!p! G,2 ^F,2!ped-up!!mp!!ped! D,,2!p! A,2 D,2!ped-up! | %39
!ped! [G,,D,]2!mp! [G,,,G,,]2 z2!ped-up!!ped! [G,,D,]2 E,D, x2!ped-up! | %40
!ped! z2"^cresc." A,4-!ped-up!!ped! A,2 [G,,G,]2 [E,E]2!ped-up! | %41
!ped! [D,D]2 [G,,G,]4!ped-up!!ped! [G,D]2 ED x2!ped-up! | %42
!ped! [G,CE]6-!ped-up!!ped! [G,CE]2 G,2 x2!ped-up! ||[M:4/4]!ff!!ped! z4 [B,DG]2 B,,2!ped-up! | %44
!ped! [B,DG]2 D,2!ped-up!!ped! [B,DG]2 G,2!ped-up! |!ped! [A,=CEG]2 A,,2!ped-up! [CEG]2 A,2 | %46
 [=CD^F]2 D,2 [CDF]2 A,2 |!ped! !>![G,DG]2 G,,2 [B,DG]2 B,,2!ped-up! | %48
!ped! [B,DG]2 D,2!ped-up!!ped! [B,DG]2 G,2!ped-up! |!ped! [A,=CEG]2 A,,2!ped-up! [=CEG]2 A,2 | %50
 [=CD^F]2 D,2 [=CDF]2 A,2 | !>![G,DG]2!ped! C,4 [_A,E]2!ped-up! | %52
!ped! D,2 [=A,CD]2!ped-up!!ped! G,,2 [G,B,D]2!ped-up! |!ped! z2 [_A,E]4 [A,E]2!ped-up! | %54
!ped! D,2 [=A,CD]2!ped-up!!ped! G,,2 [G,B,D]2!ped-up! | %55
!ped! =B,,2 [F,_A,D]2!ped-up!!ped! z2 [E,A,C]2!ped-up! |!ped! z2 [F,_A,=B,]2!ped-up! z2 A,2 | %57
!ped! ^F,,2 [^F,CE]2!ped-up! [G,_B,D]2 G,,2 |!ped! C,2 [=A,EA]2!ped-up! z2 [A,CD]2 | %59
 !>![G,B,D]2 C,4 [_A,E]2 | D,2 [=A,CD]2 G,,2 [G,B,D]2 | z2 [_A,E]6 | D,2 [=A,CD]2 G,,2 [G,B,D]2 | %63
 !>![=B,,,=B,,]2 [F,_A,D]2 !>![C,,C,]2 [E,G,C]2 | !>![D,,D,]2 [^F,=A,]2 !>![=E,,=E,]2 G,2 | %65
 !>![^F,,^F,]2 [F,C_E]2"^cresc." [F,CE]2 .[G,,G,]2 | %66
"^-" .[_A,,_A,]2 [A,E_G]2 [=A,EG]2"^-" .[=A,,A,]2 | %67
"^-" .[_B,,_B,]2 [B,E_G]2 [_CE=A]2"^-" .[=B,,=B,]2 | %68
"^-" .[C,C]2[K:treble] [CD^FA]4!fff!"^-" [CDFA]2 | %69
[K:bass]!ped! [_B,,_B,]2[K:treble] [G,DG]2!ped-up![K:bass]!ped! [C,C]2[K:treble] [A,EG]2!ped-up! | %70
[K:bass]!ped! [D,D]2[K:treble] [DGB]2!ped-up![K:bass]!ped! [C,C]2[K:treble] [CD^FA]2!ped-up! | %71
[K:bass]!ped! [B,,B,]2[K:treble] [G,DG]2!ped-up![K:bass]!ped! [C,C]2[K:treble] [A,EG]2!ped-up! | %72
[K:bass]!ped! [=D,=D]2[K:treble] [DGB]2!ped-up![K:bass]!ped! [C,C]2[K:treble] [CD^FA]2!ped-up! | %73
[K:bass]!ff!!ped! [B,,B,]2 z2[K:treble] [gbd']d z2 | %74
 [GBd]D z2[K:bass] [G,B,D]D, [G,B,D]D,!ped-up! | %75
 [^F,,,^F,,][G,,,G,,] [G,B,]D, [^C,,^C,][D,,D,] [G,B,]D, | %76
 [^F,,,^F,,][G,,,G,,] [G,B,]D, [^C,,^C,][D,,D,] [G,B,]D, | %77
!ped! x4!ff! (6:4:6G,^G,A,B,=B,[I:staff -1]C!ped-up! |[I:staff +1] z4 [=G,_B,^C=E]3 [G,B,CE] | %79
 [G,_B,^C^F]4 [G,B,C=E]3 [G,B,CE] | [G,B,^C^F]4 [G,B,C=E]4 |!ped! !arpeggio![D,A,=CG]8- | %82
 [D,A,CG]8- [D,-A,-C-G]4!ped-up! |!ped! [D,A,C^F]8 x2!ped-up! |!ped! x10!ped-up! |!ped! G,,,8- | %86
 G,,,/A,,,/B,,,/C,,/D,,/=E,,/^F,,/G,,/A,,/B,,/C,/D,/=E,/^F,/G,/A,/(5:4:5B,/C/D/=E/^F/!ped-up! | %87
 z2 z2!p!!ped! [D,G,B,]3 [D,G,B,] | [D,G,B,]4!ped-up!!ff! (6:4:6z D,G,A,CB, | B, z z2!ped! x4 | %90
 x8 z4[K:treble] x2!ped-up! |[I:staff -1] b[I:staff +1] z z2[K:bass]!p!!ped! [D,G,B,D]3 [D,G,B,D] | %92
!pp! [D,G,B,D]4!ped-up!!ff! x4 | %93
 D z z2!fff!"^poco ritento"!ped! (3[B,,,B,,]2 [=B,,,=B,,]2!ped-up! [C,,C,]2 | %94
"^accel."!ped! (6:4:6[^C,,^C,]2 [D,,D,]2!ped-up! [^D,,^D,]2"^-"!ped! [=E,,=E,]2 [F,,F,]2!ped-up! [^F,,^F,]2 | %95
"^-"!ped! (6:4:6[G,,G,]2 [^F,,^F,]2 [=F,,=F,]2"^-" [=E,,=E,]2 [_E,,_E,]2 [D,,D,]2!ped-up! | %96
"^-"!ped! (6:4:6[^C,,^C,]2 [=C,,=C,]2 [=B,,,=B,,]2"^-" [_B,,,_B,,]2 [A,,,A,,]2 [_A,,,_A,,]2!ped-up! | %97
 .[G,,,G,,]4 z4 | [G,DG]8 | !fermata![G,,,G,,G,]8 |] %100
V:3
 C,,4- C,,E,,_A,,B,, | x8 | x8 | x8 | x8 | x8 | x8 ||[M:6/4] x12 | x12 | x12 | x12 | x12 | x12 | %13
 x12 | x12 | x12 | x12 | x12 | x12 | x12 | x12 | z2 C,,2 G,2 z2 D,,2 G,2 | %22
 z2 E,,2!p! G,2 z2 D,,2 G,2 | x12 | x12 | x12 | x12 | x12 | x12 | x12 | x12 | x12 | x12 | x12 | %34
 x4 G,2 D,6 | x2 [G,B,]4 x2 [^F,A,]4 | x2 [G,B,]4 x2 [F,_A,=B,]4 | x2 [E,G,]4 x2 E,4 | %38
 x2 [D,C]4 x2 x4 | x12 | [G,,C,E,]6- [G,,C,E,]2 x4 | x12 | x12 ||[M:4/4] x8 | x8 | x8 | x8 | x8 | %48
 x8 | x8 | x8 | x2 C,6 | x8 | C,8 | x8 | x4 C,4 | D,4 E,4 | x8 | x4 D,4 | x2 C,6 | x8 | %61
 C,4 D,2 D,2 | x8 | x8 | x8 | x8 | x8 | x8 | x2[K:treble] x6 | %69
[K:bass] x2[K:treble] x2[K:bass] x2[K:treble] x2 | %70
[K:bass] x2[K:treble] x2[K:bass] x2[K:treble] x2 | %71
[K:bass] x2[K:treble] x2[K:bass] x2[K:treble] x2 | %72
[K:bass] x2[K:treble] x2[K:bass] x2[K:treble] x2 |[K:bass] x4[K:treble] x4 | x4[K:bass] x4 | x8 | %76
 x8 | [D,,,D,,]4 z4 | x8 | x8 | x8 | x8 | x12 | x10 | x10 | x8 | x10 | z2 z2 [G,,,G,,]3 [G,,,G,,] | %88
 [G,,,G,,]4 (6:4:6z D,,G,,A,,C,B,, | B,, z z2 G,,,4- | %90
 G,,,/A,,,/B,,,/C,,/D,,/=E,,/^F,,/G,,/A,,/B,,/C,/D,/=E,/^F,/G,/A,/B,/C/D/[K:treble]=E/^F/G/A/B/c/d/=e/f/ | %91
 g z z2[K:bass] [G,,,G,,]3 [G,,,G,,] | [G,,,G,,]4 (6:4:6z D,G,B,_ED | x8 | x8 | x8 | x8 | x8 | x8 | %99
 x8 |] %100
V:4
 x8 | x8 | cGB_A G2 ^F x | x ^FGF ^EF(3=AG_E | E>D(3=FED D2 x2 | x8 | x8 ||[M:6/4] x6 z CD^FBA | %8
 z2 [B,D]2 [B,D]2 z2 [DG]2!p! [DG]2 | z2!p! [CEG]2!pp! [CEG]2 z CD^FBA | %10
 z2 [B,D]2 [B,D]2 z2!mp! [G,A,^C]2 [G,A,C]2 | z2!p! [^F,A,D]2!pp! [F,A,D]2 z CD^FBA | %12
 z2 [B,D]2 [B,D]2 z2!mp! [GB_d]2!p! [GBd]2 | z2!p! [Bc]2!pp! [Bc]2 _EFA!mf!e dz/^c/ | %14
 z2!mp! [EFA]2!p! [EFA]2 z2!mp! [DFB]2!p! [DFB]2 | z2!p! [EG]2!pp! [EG]2 z CD^FBA | %16
 z2 [B,D]2 [B,D]2 z2 [DG]2!p! [DG]2 | z2!p! [CEG]2!pp! [CEG]2 z CD^FBA | %18
 z2 [B,D]2 [B,D]2 z2 [G,A,^C]2 [G,A,C]2 | z2 [^F,A,D]2 [F,A,D]2 z CD^FBA | %20
 z2 [=B,D=F]2 [B,DF]2 z2 [FG=Bd]2!p! [FGBd]2 | z2!mp! [Gce]2!p! [Gce]2 z2 [DG]2!p! [DG]2 | %22
 z2!mp! [CG]2 [CG]2 z2!p! [_B,D]2!pp! [B,D]2 | z2!mp! [Gce]2!p! [Gce]2 z2!mp! [DG]2!p! [DG]2 | %24
 z2!mp! [CG]2!p! [CG]2 z2!mp! [B,^C]2 [B,C]2 | z2!mp! [B,D]2!p! [B,D]2 z2!mp! [DFB]2!p! [DFB]2 | %26
 [EA]2 [EA]2 E2 [EA]2 [EA]2 [EA]2 | z2!mp!!>(! [E_B]2!p! [EB]2 [DB]2 [DB]2!p! [DB]2!>)! | %28
 [C^F]2 [CF]2 C2 [CF]2 [CF]2 [CF]2 | z2!mp!!>(! [C=G]2!p! [CG]2 [B,G]2!>)!!mp! [B,G]2!p! [B,G]2 | %30
 [EG]2!mp! [EG]2!p! [EG]2 [D^F]2!mp! [DF]2 [DF]2 | !arpeggio![A,=E]2 x2 x8 | x12 | x12 | x12 | %35
 x12 | x12 | x12 | x8 ED^C=C | x12 | x12 | x12 | z2 A4 A2 G2 [Ee]2 || %43
[M:4/4] !>![Gd]2!8va(! z2 x4!8va)! | x8 | x8 | x8 | x2!8va(! x6!8va)! | x8 | x8 | x8 | x8 | x8 | %53
 x2 _a2 x2 G2 | ^F2 x2 g2 x2 | =F2 x2 x4 | D2 x2 x4 | x2 c2 c2 B2 | B[db]A[c=a] G[Bg]^F[A^f] | %59
 !>![GBg]2 _a[e'_a'] a[ea]G[eg] | ^F[=A^f]f[=a^f'] g[bg']g[Bg] | _A[e_a]a[e'_a'] a[ea]G[cg] | %62
 ^F[=A^f]f[=a^f'] g[bg']g[Bg] | x8 | x8 | ^C[_E=c]c[ec'] =B[e=b]c[ec'] | %66
 c[ec']e[_g_e'] d[gd']e[ge'] | e[_ge']g[b_g'] f[_af']g[__bg'] | %68
!8va(! =f[=a^f']a[c'a'] b[d'b']c'[e'c''] | c'[e'c'']b[d'b'] b[d'b']a[c'a'] | %70
 a[c'a']g[bg'] g[bg']d[^fd'] | x8 | x8 | x4!8va)! x4 | x8 | x8 | x8 | x8 | x8 | x8 |!8va(! x8 | %81
 x8 | x8!8va)! x4 | x10 | x[K:bass] x9 |[K:treble] x8 | x10 | G z z2 x4 | x8 | x8 | x10!8va(! x4 | %91
 x!8va)! x7 | x8 | x4!8va(! x4 | x8!8va)! | x8 | x8 | x8 |!8va(! x8!8va)! | x8 |] %100
V:5
 x8 | x8 | x8 | x8 | x8 | x8 | x8 ||[M:6/4] x6 z x D3 x | x12 | x6 z x D3 x | x12 | x6 z x D3 x | %12
 x12 | x6 x2 A4 | x12 | x6 z x D3 x | x12 | x6 z x D3 x | x12 | x6 z x D3 x | x12 | x12 | x12 | %23
 x12 | x12 | x12 | x12 | x12 | x12 | x12 | x12 | x12 | x12 | x12 | x12 | x12 | x12 | x12 | x12 | %39
 x12 | x12 | x12 | x12 ||[M:4/4] x2!8va(! x6!8va)! | x8 | x8 | x8 | x2!8va(! x6!8va)! | x8 | x8 | %50
 x8 | x8 | x8 | x8 | x8 | x8 | x8 | x8 | x8 | x8 | x8 | x8 | x8 | x8 | x8 | x8 | x8 | x8 | %68
!8va(! x8 | x8 | x8 | x8 | x8 | x4!8va)! x4 | x8 | x8 | x8 | x8 | x8 | x8 |!8va(! x8 | x8 | %82
 x8!8va)! x4 | x10 | x[K:bass] x9 |[K:treble] x8 | x10 | x8 | x8 | x8 | x10!8va(! x4 | x!8va)! x7 | %92
 x8 | x4!8va(! x4 | x8!8va)! | x8 | x8 | x8 |!8va(! x8!8va)! | x8 |] %100
V:6
 x8 | x8 | x8 | x8 | x8 | x8 | x8 ||[M:6/4] x6 z C4 x | x12 | x6 x C4 x | x12 | x6 z =C4 x | x12 | %13
 x12 | x12 | x6 z C4 x | x12 | x6 z C4 x | x12 | x6 z =C4 x | x12 | x12 | x12 | x12 | x12 | x12 | %26
 x12 | x12 | x12 | x12 | x12 | x12 | x12 | x12 | x12 | x12 | x12 | x12 | x12 | x12 | x12 | x12 | %42
 x12 ||[M:4/4] x2!8va(! x6!8va)! | x8 | x8 | x8 | x2!8va(! x6!8va)! | x8 | x8 | x8 | x8 | x8 | x8 | %54
 x8 | x8 | x8 | x8 | x8 | x8 | x8 | x8 | x8 | x8 | x8 | x8 | x8 | x8 |!8va(! x8 | x8 | x8 | x8 | %72
 x8 | x4!8va)! x4 | x8 | x8 | x8 | x8 | x8 | x8 |!8va(! x8 | x8 | x8!8va)! x4 | x10 | %84
 x[K:bass] x9 |[K:treble] x8 | x10 | x8 | x8 | x8 | x10!8va(! x4 | x!8va)! x7 | x8 | x4!8va(! x4 | %94
 x8!8va)! | x8 | x8 | x8 |!8va(! x8!8va)! | x8 |] %100

